small/extra/apps/standard/ghex.svg

<?xml version="1.0" encoding="UTF-8" standalone="no"?>
<!-- Created with Inkscape (http://www.inkscape.org/) -->

<svg
   xmlns:dc="http://purl.org/dc/elements/1.1/"
   xmlns:cc="http://creativecommons.org/ns#"
   xmlns:rdf="http://www.w3.org/1999/02/22-rdf-syntax-ns#"
   xmlns:svg="http://www.w3.org/2000/svg"
   xmlns="http://www.w3.org/2000/svg"
   xmlns:inkscape="http://www.inkscape.org/namespaces/inkscape"
   version="1.1"
   width="100%"
   height="100%"
   viewBox="0 0 512 512"
   id="svg2">
  <metadata
     id="metadata10">
    <rdf:RDF>
      <cc:Work
         rdf:about="">
        <dc:format>image/svg+xml</dc:format>
        <dc:type
           rdf:resource="http://purl.org/dc/dcmitype/StillImage" />
        <dc:title />
      </cc:Work>
    </rdf:RDF>
  </metadata>
  <defs
     id="defs8">
    <clipPath
       id="clipPath3382">
      <path
         d="M 26,0 C 11.602648,0 0,11.602648 0,26 l 0,460 c 0,14.39735 11.602648,26 26,26 l 460,0 c 14.39735,0 26,-11.60265 26,-26 L 512,26 C 512,11.602648 500.39735,0 486,0 L 26,0 z"
         inkscape:connector-curvature="0"
         id="path3384"
         style="fill:#68af4c;fill-opacity:1;stroke:none" />
    </clipPath>
  </defs>
  <path
     d="M 26,0 C 11.602648,0 0,11.602648 0,26 l 0,460 c 0,14.39735 11.602648,26 26,26 l 460,0 c 14.39735,0 26,-11.60265 26,-26 L 512,26 C 512,11.602648 500.39735,0 486,0 L 26,0 z"
     inkscape:connector-curvature="0"
     id="rect2986"
     style="fill:#68af4c;fill-opacity:1;stroke:none" />
  <text
     x="-152.25735"
     y="116.11692"
     id="text20"
     style="font-size:129.22999573px;line-height:125%;letter-spacing:0;word-spacing:0;font-family:Gentium Book Basic">
    <tspan
       x="-152.25735"
       y="116.11692"
       id="tspan22" />
  </text>
  <text
     x="159.13809"
     y="116.80845"
     transform="scale(4.0128205,0.24920128)"
     id="text24"
     style="font-size:46.95375824px;text-anchor:middle;font-family:Arial" />
  <text
     x="429.01266"
     y="36.11692"
     id="text26"
     style="font-size:129.22999573px;line-height:125%;letter-spacing:0;word-spacing:0;font-family:Gentium Book Basic">
    <tspan
       x="429.01266"
       y="36.11692"
       id="tspan28" />
  </text>
  <text
     x="303.98737"
     y="-204.22971"
     transform="scale(4.0128205,0.24920128)"
     id="text30"
     style="font-size:46.95375824px;text-anchor:middle;font-family:Arial" />
  <text
     x="-642.56738"
     y="-145.14307"
     id="text32"
     style="font-size:129.22999573px;line-height:125%;letter-spacing:0;word-spacing:0;font-family:Gentium Book Basic">
    <tspan
       x="-642.56738"
       y="-145.14307"
       id="tspan34" />
  </text>
  <text
     x="36.948738"
     y="-931.57605"
     transform="scale(4.0128205,0.24920128)"
     id="text36"
     style="font-size:46.95375824px;text-anchor:middle;font-family:Arial" />
  <text
     x="455.48264"
     y="-361.61307"
     id="text38"
     style="font-size:129.22999573px;line-height:125%;letter-spacing:0;word-spacing:0;font-family:Gentium Book Basic">
    <tspan
       x="455.48264"
       y="-361.61307"
       id="tspan40" />
  </text>
  <text
     x="310.58734"
     y="-1800.2517"
     transform="scale(4.0128205,0.24920128)"
     id="text42"
     style="font-size:46.95375824px;text-anchor:middle;font-family:Arial" />
  <text
     x="1036.7527"
     y="-441.61304"
     id="text44"
     style="font-size:129.22999573px;line-height:125%;letter-spacing:0;word-spacing:0;font-family:Gentium Book Basic">
    <tspan
       x="1036.7527"
       y="-441.61304"
       id="tspan46" />
  </text>
  <text
     x="455.43658"
     y="-2121.28"
     transform="scale(4.0128205,0.24920128)"
     id="text48"
     style="font-size:46.95375824px;text-anchor:middle;font-family:Arial" />
  <text
     x="647.63263"
     y="-914.01306"
     id="text50"
     style="font-size:129.22999573px;line-height:125%;letter-spacing:0;word-spacing:0;font-family:Gentium Book Basic">
    <tspan
       x="647.63263"
       y="-914.01306"
       id="tspan52" />
  </text>
  <text
     x="358.46704"
     y="-4016.9304"
     transform="scale(4.0128205,0.24920128)"
     id="text54"
     style="font-size:46.95375824px;text-anchor:middle;font-family:Arial" />
  <text
     x="1228.8927"
     y="-994.02307"
     id="text56"
     style="font-size:129.22999573px;line-height:125%;letter-spacing:0;word-spacing:0;font-family:Gentium Book Basic">
    <tspan
       x="1228.8927"
       y="-994.02307"
       id="tspan58" />
  </text>
  <text
     x="503.31635"
     y="-4337.9688"
     transform="scale(4.0128205,0.24920128)"
     id="text60"
     style="font-size:46.95375824px;text-anchor:middle;font-family:Arial" />
  <text
     x="-603.90741"
     y="420.69702"
     id="text62"
     style="font-size:208.33000183px;line-height:125%;letter-spacing:0;word-spacing:0;font-family:Gentium Book Basic">
    <tspan
       x="-603.90741"
       y="420.69702"
       id="tspan64" />
  </text>
  <g
     clip-path="url(#clipPath3382)"
     id="g3233"
     style="opacity:0.25;fill:#000000;fill-opacity:1;fill-rule:evenodd;stroke:none">
    <path
       d="M 181.28927,41 71.60286,70.40713 460.51159,459.31586 570.198,429.90873 z"
       inkscape:connector-curvature="0"
       id="path3235"
       style="fill:#000000" />
    <path
       d="M 71.60286,70.40713 42.2041,180.12475 431.11283,569.03348 460.51159,459.31586 z"
       inkscape:connector-curvature="0"
       id="path3237"
       style="fill:#000000" />
    <path
       d="M 42.2041,180.12475 122.49174,260.43527 511.40047,649.344 431.11283,569.03348 z"
       inkscape:connector-curvature="0"
       id="path3239"
       style="fill:#000000" />
    <path
       d="M 122.49174,260.43527 232.2346,231.04327 621.14333,619.952 511.40047,649.344 z"
       inkscape:connector-curvature="0"
       id="path3241"
       style="fill:#000000" />
    <path
       d="M 232.2346,231.04327 261.63333,121.32563 650.54206,510.23436 621.14333,619.952 z"
       inkscape:connector-curvature="0"
       id="path3243"
       style="fill:#000000" />
    <path
       d="M 261.63333,121.32563 181.28927,41 570.198,429.90873 l 80.34406,80.32563 z"
       inkscape:connector-curvature="0"
       id="path3245"
       style="fill:#000000" />
    <path
       d="M 389.49313,96.788062 279.69386,126.16494 668.60259,515.07367 778.40186,485.69679 z"
       inkscape:connector-curvature="0"
       id="path3247"
       style="fill:#000000" />
    <path
       d="m 279.69386,126.16494 -29.38364,109.6612 388.90873,388.90873 29.38364,-109.6612 z"
       inkscape:connector-curvature="0"
       id="path3249"
       style="fill:#000000" />
    <path
       d="m 250.31022,235.82614 80.32897,80.38209 388.90873,388.90873 -80.32897,-80.38209 z"
       inkscape:connector-curvature="0"
       id="path3251"
       style="fill:#000000" />
    <path
       d="M 330.63919,316.20823 440.39716,286.75978 829.30589,675.66851 719.54792,705.11696 z"
       inkscape:connector-curvature="0"
       id="path3253"
       style="fill:#000000" />
    <path
       d="M 440.39716,286.75978 469.7959,177.04212 858.70463,565.95085 829.30589,675.66851 z"
       inkscape:connector-curvature="0"
       id="path3255"
       style="fill:#000000" />
    <path
       d="M 469.7959,177.04212 389.49313,96.788062 778.40186,485.69679 858.70463,565.95085 z"
       inkscape:connector-curvature="0"
       id="path3257"
       style="fill:#000000" />
    <path
       d="M 236.29756,251.54961 126.62628,280.90032 515.53501,669.80905 625.20629,640.45834 z"
       inkscape:connector-curvature="0"
       id="path3259"
       style="fill:#000000" />
    <path
       d="M 126.62628,280.90032 97.21239,390.67436 486.12112,779.58309 515.53501,669.80905 z"
       inkscape:connector-curvature="0"
       id="path3261"
       style="fill:#000000" />
    <path
       d="M 97.21239,390.67436 177.55648,471 566.46521,859.90873 486.12112,779.58309 z"
       inkscape:connector-curvature="0"
       id="path3263"
       style="fill:#000000" />
    <path
       d="M 177.55648,471 287.24289,441.59289 676.15162,830.50162 566.46521,859.90873 z"
       inkscape:connector-curvature="0"
       id="path3265"
       style="fill:#000000" />
    <path
       d="M 287.24289,441.59289 316.65675,331.81881 705.56548,720.72754 676.15162,830.50162 z"
       inkscape:connector-curvature="0"
       id="path3267"
       style="fill:#000000" />
    <path
       d="m 316.65675,331.81881 -80.35919,-80.2692 388.90873,388.90873 80.35919,80.2692 z"
       inkscape:connector-curvature="0"
       id="path3269"
       style="fill:#000000" />
  </g>
  <path
     d="M 181.28927,41 71.60286,70.40713 42.2041,180.12475 122.49174,260.43527 232.2346,231.04327 261.63333,121.32563 181.28927,41 z M 389.49313,96.788062 279.69386,126.16494 250.31022,235.82614 330.63919,316.20823 440.39716,286.75978 469.7959,177.04212 389.49313,96.788062 z M 236.29756,251.54961 126.62628,280.90032 97.21239,390.67436 177.55648,471 287.24289,441.59289 316.65675,331.81881 236.29756,251.54961 z"
     inkscape:connector-curvature="0"
     id="path3064"
     style="fill:#ffffff;fill-opacity:1;fill-rule:evenodd;stroke:none" />
</svg>

<svg xmlns="http://www.w3.org/2000/svg" viewBox="0 0 512 512"><defs><clipPath><rect y="6" x="6" rx="6" height="84" width="84" style="fill:#fff"/></clipPath><clipPath><rect y="6" x="6" rx="6" height="84" width="84" style="fill:#fff"/></clipPath><clipPath><rect y="6" x="6" rx="6" height="84" width="84" style="fill:#fff"/></clipPath><clipPath><rect y="6" x="6" rx="6" height="84" width="84" style="fill:#fff"/></clipPath><clipPath><rect y="6" x="6" rx="6" height="84" width="84" style="fill:#fff"/></clipPath><filter style="color-interpolation-filters:sRGB"><feGaussianBlur stdDeviation="1.71"/></filter><filter height="1.384" width="1.384" y="-.192" x="-.192" style="color-interpolation-filters:sRGB"><feGaussianBlur stdDeviation="5.28"/></filter><linearGradient gradientUnits="userSpaceOnUse" y2="138.66" x2="0" y1="20.221"><stop style="stop-color:#fff"/><stop offset="1" style="stop-color:#fff;stop-opacity:0"/></linearGradient><linearGradient gradientUnits="userSpaceOnUse" gradientTransform="scale(1.0059.99417)" y1="92.54" x2="0" y2="7.02"><stop/><stop offset="1" style="stop-opacity:.588"/></linearGradient></defs><text x="-235.1" y="168.28" line-height="125%" style="letter-spacing:0;word-spacing:0;font-size:129.23;font-family:&apos;Gentium Book Basic&apos;"><tspan x="-235.1" y="168.28"/></text><text x="138.49" y="326.11" transform="scale(4.0128.2492)" style="font-size:46.954;font-family:Arial;text-anchor:middle"/><text x="346.17" y="88.28" line-height="125%" style="letter-spacing:0;word-spacing:0;font-size:129.23;font-family:&apos;Gentium Book Basic&apos;"><tspan x="346.17" y="88.28"/></text><text x="283.34" y="5.071" transform="scale(4.0128.2492)" style="font-size:46.954;font-family:Arial;text-anchor:middle"/><text x="-725.41" y="-92.98" line-height="125%" style="letter-spacing:0;word-spacing:0;font-size:129.23;font-family:&apos;Gentium Book Basic&apos;"><tspan x="-725.41" y="-92.98"/></text><text x="16.305" y="-722.27" transform="scale(4.0128.2492)" style="font-size:46.954;font-family:Arial;text-anchor:middle"/><text x="372.64" y="-309.45" line-height="125%" style="letter-spacing:0;word-spacing:0;font-size:129.23;font-family:&apos;Gentium Book Basic&apos;"><tspan x="372.64" y="-309.45"/></text><text x="289.94" y="-1590.95" transform="scale(4.0128.2492)" style="font-size:46.954;font-family:Arial;text-anchor:middle"/><text x="953.91" y="-389.45" line-height="125%" style="letter-spacing:0;word-spacing:0;font-size:129.23;font-family:&apos;Gentium Book Basic&apos;"><tspan x="953.91" y="-389.45"/></text><text x="434.79" y="-1911.98" transform="scale(4.0128.2492)" style="font-size:46.954;font-family:Arial;text-anchor:middle"/><text x="564.79" y="-861.85" line-height="125%" style="letter-spacing:0;word-spacing:0;font-size:129.23;font-family:&apos;Gentium Book Basic&apos;"><tspan x="564.79" y="-861.85"/></text><text x="337.82" y="-3807.63" transform="scale(4.0128.2492)" style="font-size:46.954;font-family:Arial;text-anchor:middle"/><text x="1146.05" y="-941.86" line-height="125%" style="letter-spacing:0;word-spacing:0;font-size:129.23;font-family:&apos;Gentium Book Basic&apos;"><tspan x="1146.05" y="-941.86"/></text><text x="482.67" y="-4128.67" transform="scale(4.0128.2492)" style="font-size:46.954;font-family:Arial;text-anchor:middle"/><g line-height="125%" style="letter-spacing:0;word-spacing:0;font-family:&apos;Gentium Book Basic&apos;"><text x="-686.75" y="472.86" style="font-size:208.33"><tspan x="-686.75" y="472.86"/></text><g style="font-size:0"><text y="31.536" x="-132.36"><tspan y="31.536" x="-132.36"/></text><text y="309.66" x="-2491.19"><tspan y="309.66" x="-2491.19"/></text><text y="82.37" x="-2202.97"><tspan y="82.37" x="-2202.97"/></text><text y="-174.53" x="1991.63"><tspan y="-174.53" x="1991.63"/></text></g><text x="47.17" y="183.62" style="font-size:129.23"><tspan x="47.17" y="183.62"/></text></g><text x="208.84" y="387.66" transform="scale(4.0128.2492)" style="font-size:46.954;font-family:Arial;text-anchor:middle"/><text x="628.44" y="103.62" line-height="125%" style="letter-spacing:0;word-spacing:0;font-size:129.23;font-family:&apos;Gentium Book Basic&apos;"><tspan x="628.44" y="103.62"/></text><text x="353.69" y="66.63" transform="scale(4.0128.2492)" style="font-size:46.954;font-family:Arial;text-anchor:middle"/><text x="-443.14" y="-77.65" line-height="125%" style="letter-spacing:0;word-spacing:0;font-size:129.23;font-family:&apos;Gentium Book Basic&apos;"><tspan x="-443.14" y="-77.65"/></text><text x="86.65" y="-660.73" transform="scale(4.0128.2492)" style="font-size:46.954;font-family:Arial;text-anchor:middle"/><text x="654.91" y="-294.11" line-height="125%" style="letter-spacing:0;word-spacing:0;font-size:129.23;font-family:&apos;Gentium Book Basic&apos;"><tspan x="654.91" y="-294.11"/></text><text x="360.29" y="-1529.38" transform="scale(4.0128.2492)" style="font-size:46.954;font-family:Arial;text-anchor:middle"/><text x="1236.18" y="-374.12" line-height="125%" style="letter-spacing:0;word-spacing:0;font-size:129.23;font-family:&apos;Gentium Book Basic&apos;"><tspan x="1236.18" y="-374.12"/></text><text x="505.13" y="-1850.42" transform="scale(4.0128.2492)" style="font-size:46.954;font-family:Arial;text-anchor:middle"/><text x="847.06" y="-846.52" line-height="125%" style="letter-spacing:0;word-spacing:0;font-size:129.23;font-family:&apos;Gentium Book Basic&apos;"><tspan x="847.06" y="-846.52"/></text><text x="408.16" y="-3746.06" transform="scale(4.0128.2492)" style="font-size:46.954;font-family:Arial;text-anchor:middle"/><text x="1428.32" y="-926.52" line-height="125%" style="letter-spacing:0;word-spacing:0;font-size:129.23;font-family:&apos;Gentium Book Basic&apos;"><tspan x="1428.32" y="-926.52"/></text><text x="553.01" y="-4067.09" transform="scale(4.0128.2492)" style="font-size:46.954;font-family:Arial;text-anchor:middle"/><g line-height="125%" style="letter-spacing:0;word-spacing:0;font-family:&apos;Gentium Book Basic&apos;"><text x="-404.48" y="488.2" style="font-size:208.33"><tspan x="-404.48" y="488.2"/></text><text x="172.96" y="189.75" style="font-size:129.23"><tspan x="172.96" y="189.75"/></text></g><text x="240.18" y="412.28" transform="scale(4.0128.2492)" style="font-size:46.954;font-family:Arial;text-anchor:middle"/><text x="754.23" y="109.75" line-height="125%" style="letter-spacing:0;word-spacing:0;font-size:129.23;font-family:&apos;Gentium Book Basic&apos;"><tspan x="754.23" y="109.75"/></text><text x="385.03" y="91.25" transform="scale(4.0128.2492)" style="font-size:46.954;font-family:Arial;text-anchor:middle"/><text x="-317.35" y="-71.51" line-height="125%" style="letter-spacing:0;word-spacing:0;font-size:129.23;font-family:&apos;Gentium Book Basic&apos;"><tspan x="-317.35" y="-71.51"/></text><text x="117.99" y="-636.1" transform="scale(4.0128.2492)" style="font-size:46.954;font-family:Arial;text-anchor:middle"/><text x="780.7" y="-287.98" line-height="125%" style="letter-spacing:0;word-spacing:0;font-size:129.23;font-family:&apos;Gentium Book Basic&apos;"><tspan x="780.7" y="-287.98"/></text><text x="391.63" y="-1504.76" transform="scale(4.0128.2492)" style="font-size:46.954;font-family:Arial;text-anchor:middle"/><text x="1361.97" y="-367.99" line-height="125%" style="letter-spacing:0;word-spacing:0;font-size:129.23;font-family:&apos;Gentium Book Basic&apos;"><tspan x="1361.97" y="-367.99"/></text><text x="536.48" y="-1825.8" transform="scale(4.0128.2492)" style="font-size:46.954;font-family:Arial;text-anchor:middle"/><text x="972.85" y="-840.39" line-height="125%" style="letter-spacing:0;word-spacing:0;font-size:129.23;font-family:&apos;Gentium Book Basic&apos;"><tspan x="972.85" y="-840.39"/></text><text x="439.51" y="-3721.44" transform="scale(4.0128.2492)" style="font-size:46.954;font-family:Arial;text-anchor:middle"/><text x="1554.11" y="-920.39" line-height="125%" style="letter-spacing:0;word-spacing:0;font-size:129.23;font-family:&apos;Gentium Book Basic&apos;"><tspan x="1554.11" y="-920.39"/></text><text x="584.36" y="-4042.47" transform="scale(4.0128.2492)" style="font-size:46.954;font-family:Arial;text-anchor:middle"/><text x="-278.69" y="494.33" line-height="125%" style="letter-spacing:0;word-spacing:0;font-size:208.33;font-family:&apos;Gentium Book Basic&apos;"><tspan x="-278.69" y="494.33"/></text><path d="m26 0c-14.397 0-26 11.603-26 26v460c0 14.397 11.603 26 26 26h460c14.397 0 26-11.603 26-26v-460c0-14.397-11.603-26-26-26h-460" style="fill:#68af4c"/><text x="-152.26" y="116.12" line-height="125%" style="letter-spacing:0;word-spacing:0;font-size:129.23;font-family:&apos;Gentium Book Basic&apos;"><tspan x="-152.26" y="116.12"/></text><text x="159.14" y="116.81" transform="scale(4.0128.2492)" style="font-size:46.954;font-family:Arial;text-anchor:middle"/><text x="429.01" y="36.12" line-height="125%" style="letter-spacing:0;word-spacing:0;font-size:129.23;font-family:&apos;Gentium Book Basic&apos;"><tspan x="429.01" y="36.12"/></text><text x="303.99" y="-204.23" transform="scale(4.0128.2492)" style="font-size:46.954;font-family:Arial;text-anchor:middle"/><text x="-642.57" y="-145.14" line-height="125%" style="letter-spacing:0;word-spacing:0;font-size:129.23;font-family:&apos;Gentium Book Basic&apos;"><tspan x="-642.57" y="-145.14"/></text><text x="36.949" y="-931.58" transform="scale(4.0128.2492)" style="font-size:46.954;font-family:Arial;text-anchor:middle"/><text x="455.48" y="-361.61" line-height="125%" style="letter-spacing:0;word-spacing:0;font-size:129.23;font-family:&apos;Gentium Book Basic&apos;"><tspan x="455.48" y="-361.61"/></text><text x="310.59" y="-1800.25" transform="scale(4.0128.2492)" style="font-size:46.954;font-family:Arial;text-anchor:middle"/><text x="1036.75" y="-441.61" line-height="125%" style="letter-spacing:0;word-spacing:0;font-size:129.23;font-family:&apos;Gentium Book Basic&apos;"><tspan x="1036.75" y="-441.61"/></text><text x="455.44" y="-2121.28" transform="scale(4.0128.2492)" style="font-size:46.954;font-family:Arial;text-anchor:middle"/><text x="647.63" y="-914.01" line-height="125%" style="letter-spacing:0;word-spacing:0;font-size:129.23;font-family:&apos;Gentium Book Basic&apos;"><tspan x="647.63" y="-914.01"/></text><text x="358.47" y="-4016.93" transform="scale(4.0128.2492)" style="font-size:46.954;font-family:Arial;text-anchor:middle"/><text x="1228.89" y="-994.02" line-height="125%" style="letter-spacing:0;word-spacing:0;font-size:129.23;font-family:&apos;Gentium Book Basic&apos;"><tspan x="1228.89" y="-994.02"/></text><text x="503.32" y="-4337.97" transform="scale(4.0128.2492)" style="font-size:46.954;font-family:Arial;text-anchor:middle"/><text x="-603.91" y="420.7" line-height="125%" style="letter-spacing:0;word-spacing:0;font-size:208.33;font-family:&apos;Gentium Book Basic&apos;"><tspan x="-603.91" y="420.7"/></text><g style="fill-rule:evenodd"><path d="m181.29 41l-109.69 29.406-29.4 109.72 80.29 80.31 17.02 17.02-12.883 3.447-29.414 109.77 121.33 121.33h267.46c14.397 0 26-11.603 26-26v-266.75l-42.2-42.2-80.3-80.26-109.8 29.377-2.795 10.428-15.266-15.266-80.34-80.33" style="opacity:.25"/><path d="m181.29 41l-109.69 29.407-29.399 109.72 80.29 80.31 109.74-29.392 29.399-109.72-80.34-80.33m208.2 55.788l-109.8 29.377-29.384 109.66 80.33 80.38 109.76-29.448 29.399-109.72-80.3-80.25m-153.2 154.76l-109.67 29.351-29.414 109.77 80.34 80.33 109.69-29.407 29.414-109.77-80.36-80.27" style="fill:#fff"/></g></svg>
